assets/img/logo.svg

<?xml version="1.0" encoding="UTF-8"?>
<svg width="800px" height="800px" viewBox="0 0 800 800" version="1.1" xmlns="http://www.w3.org/2000/svg" xmlns:xlink="http://www.w3.org/1999/xlink">
    <!-- Generator: Sketch 46.1 (44463) - http://www.bohemiancoding.com/sketch -->
    <title>Closed In</title>
    <desc>Created with Sketch.</desc>
    <defs>
        <linearGradient x1="50%" y1="46.804289%" x2="0%" y2="50%" id="linearGradient-1">
            <stop stop-color="#B71C1C" offset="0%"></stop>
            <stop stop-color="#F44336" offset="100%"></stop>
        </linearGradient>
        <linearGradient x1="-2.22044605e-14%" y1="16.4504481%" x2="80.8653507%" y2="68.4808129%" id="linearGradient-2">
            <stop stop-color="#1B5E20" offset="0%"></stop>
            <stop stop-color="#00C853" offset="100%"></stop>
        </linearGradient>
        <linearGradient x1="0%" y1="50%" x2="100%" y2="65.4491019%" id="linearGradient-3">
            <stop stop-color="#3E2723" offset="0%"></stop>
            <stop stop-color="#795548" offset="100%"></stop>
        </linearGradient>
    </defs>
    <g id="2017" stroke="none" stroke-width="1" fill="none" fill-rule="evenodd">
        <g id="Closed-In">
            <g id="Chocolate-Dipped-Strawberry" transform="translate(50.000000, -25.000000)">
                <g id="Choco-Strawberry">
                    <g id="Berry" transform="translate(378.724522, 378.724522) rotate(-45.000000) translate(-378.724522, -378.724522) translate(159.779500, 148.858251)" fill="url(#linearGradient-1)">
                        <path d="M151.87948,431.568441 C123.330697,413.867359 102.667948,391.003284 90.6340322,378.077603 C17.0971816,299.091351 0,205.368806 0,160.798214 C0,114.105276 17.9810926,48.8400039 109.458646,11.9492489 C128.159243,4.40773614 164.618848,0.424860505 218.837462,0.000621969228 C218.850768,0.000103224781 218.864073,0.000206663759 218.877377,0.000310316932 L218.917292,0 C273.135906,0.424860505 309.595511,4.40773614 328.296108,11.9492489 C419.773662,48.8400039 437.754754,114.105276 437.754754,160.798214 C437.754754,205.368806 420.657573,299.091351 347.120722,378.077603 C335.086806,391.003284 314.424058,413.867359 285.875275,431.568441 L288.07601,431.568441 C258.253627,450.141037 235.553342,459.427335 219.975155,459.427335 C204.396967,459.427335 181.696682,450.141037 151.874299,431.568441 L151.87948,431.568441 Z" id="Combined-Shape"></path>
                    </g>
                    <path d="M96.2605008,334.479773 C96.2605008,334.479773 93.1104607,272.420383 147.566309,233.606109 C147.566309,233.606109 64.5790728,199.716034 37.5864968,94.1716225 C37.5864968,94.1716225 94.0337492,86.8034277 154.174149,142.037733 C154.174149,142.037733 197.134164,86.8034277 179.953779,40.168367 C179.953779,40.168367 270.309209,81.4266369 250.902072,179.838202 C250.902072,179.838202 334.921217,184.653778 385.06839,235.144921 C385.06839,235.144921 368.521633,261.503869 317.777039,276.185947 C317.777039,276.185947 355.088708,331.402148 360.791366,384.608843 C360.791366,384.608843 301.628563,387.668363 224.597436,310.637236 C224.597436,310.637236 150.028408,344.07472 96.2605008,334.479773 Z" id="Fill-20" fill="url(#linearGradient-2)" fill-rule="nonzero" transform="translate(211.327444, 212.396889) rotate(-75.000000) translate(-211.327444, -212.396889) "></path>
                    <path d="M271.954294,628.971935 C267.695557,619.419388 338.747789,583.677984 396.850202,546.062545 C417.168835,532.908285 445.304188,513.56776 457.970114,492.843851 C463.788563,483.32374 466.761507,455.806127 456.487611,428.477604 C439.447083,383.149866 392.07025,345.922193 436.088429,323.057763 C498.826243,290.469764 468.111771,374.010703 479.353058,421.921042 C486.310729,451.574621 505.285822,472.827548 511.254134,483.112334 C519.158086,496.732674 568.802558,540.764534 600.587255,600.495293 C628.211176,652.406994 638.99336,718.733841 639.192535,755.190943 C639.339264,776.376324 636.739749,828.686976 601.448469,797.657359 C587.761974,785.623602 557.874469,685.796232 538.152143,678.996235 C510.701778,669.531713 446.308703,736.424166 421.553423,720.501483 C401.623163,707.682271 442.792205,640.789875 421.255473,631.173839 C357.473499,602.695529 280.815071,648.847075 271.954294,628.971935 Z" id="Chocolate" fill="url(#linearGradient-3)" transform="translate(455.484784, 561.481808) scale(1, -1) rotate(16.000000) translate(-455.484784, -561.481808) "></path>
                </g>
            </g>
        </g>
    </g>
</svg>

<svg width="800" height="800" viewBox="0 0 800 800" xmlns="http://www.w3.org/2000/svg"><title>Closed In</title><defs><linearGradient x1="50%" y1="46.804%" x2="0%" y2="50%" id="a"><stop stop-color="#B71C1C" offset="0%"/><stop stop-color="#F44336" offset="100%"/></linearGradient><linearGradient x1="0%" y1="16.45%" x2="80.865%" y2="68.481%" id="b"><stop stop-color="#1B5E20" offset="0%"/><stop stop-color="#00C853" offset="100%"/></linearGradient><linearGradient x1="0%" y1="50%" y2="65.449%" id="c"><stop stop-color="#3E2723" offset="0%"/><stop stop-color="#795548" offset="100%"/></linearGradient></defs><g fill="none" fill-rule="evenodd"><path d="M151.88 431.568c-28.55-17.7-49.212-40.565-61.246-53.49C17.097 299.09 0 205.368 0 160.798 0 114.105 17.981 48.84 109.459 11.95 128.159 4.408 164.619.425 218.837.001h.04l.04-.001c54.219.425 90.679 4.408 109.38 11.95 91.477 36.89 109.458 102.155 109.458 148.848 0 44.57-17.097 138.293-90.634 217.28-12.034 12.925-32.697 35.79-61.246 53.49h2.201c-29.822 18.573-52.523 27.86-68.1 27.86-15.579 0-38.28-9.287-68.102-27.86h.005z" transform="rotate(-45 473.345 38.57)" fill="url(#a)"/><path d="M96.26 334.48s-3.15-62.06 51.306-100.874c0 0-82.987-33.89-109.98-139.434 0 0 56.448-7.369 116.588 47.866 0 0 42.96-55.235 25.78-101.87 0 0 90.355 41.259 70.948 139.67 0 0 84.02 4.816 134.166 55.307 0 0-16.546 26.359-67.291 41.04 0 0 37.312 55.217 43.014 108.424 0 0-59.162 3.06-136.194-73.972 0 0-74.569 33.438-128.336 23.843z" fill="url(#b)" fill-rule="nonzero" transform="rotate(-75 220.037 167.316)"/><path d="M271.954 628.972c-4.258-9.553 66.794-45.294 124.896-82.91 20.319-13.154 48.454-32.494 61.12-53.218 5.819-9.52 8.792-37.038-1.482-64.366-17.04-45.328-64.418-82.556-20.4-105.42 62.738-32.588 32.024 50.953 43.265 98.863 6.958 29.654 25.933 50.907 31.901 61.191 7.904 13.62 57.549 57.653 89.333 117.383 27.624 51.912 38.406 118.239 38.606 154.696.146 21.185-2.453 73.496-37.745 42.466-13.686-12.033-43.574-111.86-63.296-118.66-27.45-9.465-91.843 57.427-116.599 41.504-19.93-12.819 21.24-79.711-.298-89.327-63.782-28.478-140.44 17.673-149.3-2.202z" fill="url(#c)" transform="scale(1 -1) rotate(16 4386.693 190.384)"/></g></svg>
